svgs/sharp-regular/person-dots-from-line.svg

<svg xmlns="http://www.w3.org/2000/svg" viewBox="0 0 576 512"><!--! Font Awesome Pro 6.6.0 by @fontawesome - https://fontawesome.com License - https://fontawesome.com/license (Commercial License) Copyright 2024 Fonticons, Inc. --><path d="M288 128a40 40 0 1 0 0-80 40 40 0 1 0 0 80zM288 0a88 88 0 1 1 0 176A88 88 0 1 1 288 0zM202.2 208l5.8 0 160 0 5.8 0 5.1 2.6 172.8 88 21.4 10.9-21.8 42.8-21.4-10.9L400 275.2 400 432l-48 0 0-176-128 0 0 176-48 0 0-156.8L46.1 341.4 24.7 352.3 2.9 309.5l21.4-10.9 172.8-88 5.1-2.6zM0 464l24 0 528 0 24 0 0 48-24 0L24 512 0 512l0-48zM56 192a24 24 0 1 1 0 48 24 24 0 1 1 0-48zM288 376a24 24 0 1 1 48 0 24 24 0 1 1 -48 0zM488 176a24 24 0 1 1 0 48 24 24 0 1 1 0-48z"/></svg>

<svg xmlns="http://www.w3.org/2000/svg" viewBox="0 0 576 512"><!--! Font Awesome Pro 6.4.0 by @fontawesome - https://fontawesome.com License - https://fontawesome.com/license (Commercial License) Copyright 2023 Fonticons, Inc. --><path d="M288 128a40 40 0 1 0 0-80 40 40 0 1 0 0 80zM288 0a88 88 0 1 1 0 176A88 88 0 1 1 288 0zM202.2 208H208 368h5.8l5.1 2.6 172.8 88 21.4 10.9-21.8 42.8-21.4-10.9L400 275.2V432H352V256H224V432H176V275.2L46.1 341.4 24.7 352.3 2.9 309.5l21.4-10.9 172.8-88 5.1-2.6zM0 464H24 552h24v48H552 24 0V464zM56 192a24 24 0 1 1 0 48 24 24 0 1 1 0-48zM288 376a24 24 0 1 1 48 0 24 24 0 1 1 -48 0zM488 176a24 24 0 1 1 0 48 24 24 0 1 1 0-48z"/></svg>
